svgs/sharp-light/waffle.svg

<svg xmlns="http://www.w3.org/2000/svg" viewBox="0 0 512 512"><!--! Font Awesome Pro 6.6.0 by @fontawesome - https://fontawesome.com License - https://fontawesome.com/license (Commercial License) Copyright 2024 Fonticons, Inc. --><path d="M480 256A224 224 0 1 0 32 256a224 224 0 1 0 448 0zM0 256a256 256 0 1 1 512 0A256 256 0 1 1 0 256zM272 80l0 64 64 0 0-32 0-16 32 0 0 16 0 32 32 0 16 0 0 32-16 0-32 0 0 64 64 0 16 0 0 32-16 0-64 0 0 64 32 0 16 0 0 32-16 0-32 0 0 32 0 16-32 0 0-16 0-32-64 0 0 64 0 16-32 0 0-16 0-64-64 0 0 32 0 16-32 0 0-16 0-32-32 0-16 0 0-32 16 0 32 0 0-64-64 0-16 0 0-32 16 0 64 0 0-64-32 0-16 0 0-32 16 0 32 0 0-32 0-16 32 0 0 16 0 32 64 0 0-64 0-16 32 0 0 16zm-96 96l0 64 64 0 0-64-64 0zm0 96l0 64 64 0 0-64-64 0zm96 0l0 64 64 0 0-64-64 0zm0-32l64 0 0-64-64 0 0 64z"/></svg>

<svg xmlns="http://www.w3.org/2000/svg" viewBox="0 0 512 512"><!--! Font Awesome Pro 6.4.0 by @fontawesome - https://fontawesome.com License - https://fontawesome.com/license (Commercial License) Copyright 2023 Fonticons, Inc. --><path d="M480 256A224 224 0 1 0 32 256a224 224 0 1 0 448 0zM0 256a256 256 0 1 1 512 0A256 256 0 1 1 0 256zM272 80v64h64V112 96h32v16 32h32 16v32H400 368v64h64 16v32H432 368v64h32 16v32H400 368v32 16H336V400 368H272v64 16H240V432 368H176v32 16H144V400 368H112 96V336h16 32V272H80 64V240H80h64V176H112 96V144h16 32V112 96h32v16 32l64 0V80 64h32V80zm-96 96v64h64V176l-64 0zm0 96v64h64V272H176zm96 0v64h64V272H272zm0-32h64V176H272v64z"/></svg>
